GeneralPlan/dist/assets/img/customer-studio-1.svg

<svg width="50" height="55" viewBox="0 0 50 55" fill="none" xmlns="http://www.w3.org/2000/svg">
<path fill-rule="evenodd" clip-rule="evenodd" d="M0 45.1614H12.9032V37.9033H0V45.1614Z" fill="white"/>
<path fill-rule="evenodd" clip-rule="evenodd" d="M46.7742 45.1614H50V37.9033H46.7742V45.1614Z" fill="white"/>
<path fill-rule="evenodd" clip-rule="evenodd" d="M20.1613 45.1582L39.5161 45.1614V37.9066L20.1613 37.9033V45.1582Z" fill="white"/>
<path fill-rule="evenodd" clip-rule="evenodd" d="M0 30.6452L16.9355 8.87097H0V30.6452Z" fill="white"/>
<path fill-rule="evenodd" clip-rule="evenodd" d="M3.2258 30.6452H12.9032V17.7419L3.2258 30.6452Z" fill="white"/>
<path fill-rule="evenodd" clip-rule="evenodd" d="M20.1613 30.6718L23.5308 30.6764L23.5287 37.9032H25.7155V30.681L42.7419 8.87097H20.1613V30.6718Z" fill="white"/>
<path fill-rule="evenodd" clip-rule="evenodd" d="M4.69511 4.52228L4.52181 5.1837C4.29079 5.29653 4.0426 5.37982 3.7774 5.43366C3.51213 5.4875 3.2404 5.51442 2.96206 5.51442C2.1007 5.51442 1.397 5.28115 0.850806 4.81454C0.283575 4.33255 0 3.70189 0 2.92256C0 1.96373 0.307274 1.2254 0.92174 0.707568C1.48365 0.235882 2.22153 0 3.13537 0C3.40846 0 3.6868 0.0320713 3.97038 0.0961369C4.25395 0.160203 4.51133 0.253802 4.74243 0.376857L4.56122 1.16903H4.45095C4.30393 0.963907 4.11087 0.794706 3.87195 0.661422C3.63295 0.528138 3.39009 0.461457 3.14327 0.461457C2.53404 0.461457 2.06402 0.712721 1.73313 1.21517C1.44947 1.64586 1.30769 2.17908 1.30769 2.81489C1.30769 3.49169 1.47051 4.03391 1.79616 4.44153C2.12174 4.84915 2.58386 5.05296 3.1826 5.05296C3.42942 5.05296 3.68019 5.00043 3.93491 4.89529C4.18963 4.79016 4.40888 4.65049 4.59274 4.47614L4.69511 4.52228ZM11.7962 5.40674C11.7279 5.40674 11.6136 5.40159 11.4534 5.39136C11.2933 5.38113 11.2106 5.37598 11.2053 5.37598C11.1423 5.37598 11.0451 5.38113 10.9139 5.39136C10.7825 5.40159 10.6828 5.40674 10.6145 5.40674V0.684495C10.3361 0.684495 10.0933 0.693493 9.8858 0.711413C9.67831 0.729333 9.43287 0.756252 9.14921 0.792168C9.15977 0.720412 9.16896 0.657577 9.17678 0.60374C9.18468 0.549903 9.18863 0.50245 9.18863 0.461457C9.18863 0.389701 9.18331 0.326866 9.17283 0.273029C9.16235 0.219192 9.15445 0.174277 9.14921 0.138437H13.2062C13.1905 0.246111 13.1747 0.353784 13.159 0.461457C13.159 0.512756 13.1642 0.567823 13.1747 0.626813C13.1852 0.685803 13.1958 0.74087 13.2062 0.792168C12.8229 0.746023 12.5918 0.720412 12.513 0.715259C12.2767 0.694724 12.0377 0.684495 11.7962 0.684495V5.40674ZM19.8031 4.01214C19.6508 3.6942 19.4197 3.28273 19.1098 2.78028C19.0521 2.68799 18.7553 2.22015 18.2197 1.37799C17.8626 0.819087 17.6078 0.405083 17.4555 0.138437C17.5343 0.138437 17.6524 0.146128 17.81 0.16151C17.9676 0.176892 18.0857 0.184583 18.1645 0.184583C18.2433 0.184583 18.3615 0.176892 18.519 0.16151C18.6765 0.146128 18.7947 0.138437 18.8735 0.138437C18.9417 0.276874 19.0836 0.528138 19.2989 0.892151C19.3409 0.958831 19.5484 1.30746 19.9213 1.93812C20.1733 2.35859 20.3283 2.62515 20.3861 2.73798C20.5121 2.54824 20.7248 2.14062 21.0241 1.51512C21.1817 1.18695 21.3944 0.728026 21.6622 0.138437L22.0483 0.16151L22.4264 0.138437C22.2741 0.405083 21.9931 0.925453 21.5835 1.6997C21.2053 2.4175 20.8508 3.10968 20.5199 3.77626C20.1261 4.57097 19.8714 5.11449 19.7558 5.40674C19.7243 5.40674 19.6718 5.40159 19.5983 5.39136C19.5247 5.38113 19.467 5.37598 19.425 5.37598L19.0862 5.40674C19.1755 5.25808 19.3225 4.97736 19.5274 4.5672C19.5904 4.43899 19.6823 4.2531 19.8031 4.01214ZM26.8883 4.82223C27.1194 4.3044 27.3452 3.78649 27.5658 3.26866C27.8284 2.66361 28.0464 2.14578 28.2197 1.71508C28.414 1.2434 28.6188 0.712721 28.8341 0.123055C28.8709 0.123055 28.926 0.128208 28.9996 0.138437C29.0731 0.148666 29.1282 0.153819 29.165 0.153819C29.207 0.153819 29.2648 0.148666 29.3383 0.138437C29.4119 0.128208 29.467 0.123055 29.5038 0.123055C29.7716 0.846005 30.0761 1.63302 30.4175 2.48418C30.7169 3.23789 31.0346 4.01722 31.3708 4.82223H31.7489C31.7384 4.89399 31.7291 4.96836 31.7213 5.04527C31.7134 5.12218 31.7069 5.1837 31.7017 5.22985C31.7017 5.28115 31.7069 5.35291 31.7174 5.4452C31.7279 5.53749 31.7384 5.60417 31.7489 5.64516H31.6307C31.5362 5.53233 31.3734 5.45927 31.1423 5.42597C30.9112 5.39267 30.6434 5.37598 30.3388 5.37598H28.0149C27.6525 5.37598 27.3623 5.39005 27.1444 5.41828C26.9264 5.4465 26.7675 5.52211 26.6678 5.64516H26.5496C26.5653 5.58363 26.5759 5.52211 26.5811 5.46058C26.5863 5.39905 26.589 5.32214 26.589 5.22985C26.589 5.14779 26.5837 5.06834 26.5732 4.99143C26.5627 4.91452 26.5548 4.85815 26.5496 4.82223H26.8883ZM30.0395 4.82223C29.8661 4.31463 29.6731 3.78395 29.4604 3.2302C29.2477 2.67645 29.039 2.12786 28.8341 1.58434C28.5978 2.15347 28.3772 2.69183 28.1724 3.19944C27.9361 3.7891 27.7313 4.33001 27.5579 4.82223C27.6629 4.82738 27.852 4.83377 28.1251 4.84146C28.3982 4.84915 28.6057 4.85299 28.7475 4.85299C28.9576 4.85299 29.1781 4.85045 29.4092 4.8453C29.6402 4.84015 29.8504 4.83246 30.0395 4.82223ZM36.3842 0.123055C36.4472 0.123055 36.5444 0.133284 36.6756 0.153819C36.8069 0.174277 36.9067 0.184583 36.975 0.184583C37.038 0.184583 37.1351 0.174277 37.2664 0.153819C37.3978 0.133284 37.4975 0.123055 37.5658 0.123055V3.73011C38.007 3.27381 38.5269 2.68161 39.1256 1.9535C39.698 1.25616 40.1759 0.64604 40.5593 0.123055C40.6434 0.123055 40.7117 0.123055 40.7641 0.123055C40.8062 0.123055 40.8718 0.123055 40.9611 0.123055C41.0504 0.123055 41.1161 0.123055 41.1581 0.123055V5.40674C41.095 5.40674 40.9979 5.40159 40.8666 5.39136C40.7353 5.38113 40.6329 5.37598 40.5593 5.37598C40.5016 5.37598 40.407 5.38113 40.2757 5.39136C40.1445 5.40159 40.0446 5.40674 39.9764 5.40674V1.76892C39.5195 2.27652 39.0035 2.87896 38.4284 3.57629C37.8533 4.27363 37.3689 4.88376 36.975 5.40674C36.9382 5.40674 36.8962 5.40674 36.8489 5.40674C36.8017 5.40674 36.7675 5.40674 36.7465 5.40674C36.6835 5.40674 36.6218 5.40674 36.5614 5.40674C36.501 5.40674 36.4419 5.40674 36.3842 5.40674V0.123055ZM50 5.40674C49.937 5.40674 49.8398 5.40159 49.7085 5.39136C49.5773 5.38113 49.4774 5.37598 49.4092 5.37598C49.3462 5.37598 49.249 5.38113 49.1178 5.39136C48.9864 5.40159 48.8867 5.40674 48.8184 5.40674V2.95333H48.7632C48.6687 3.10199 48.5768 3.25074 48.4875 3.3994C48.3982 3.54807 48.3221 3.68143 48.2591 3.79933L47.3138 5.40674C47.2349 5.40674 47.1168 5.40159 46.9593 5.39136C46.8017 5.38113 46.6835 5.37598 46.6048 5.37598C46.5207 5.37598 46.3999 5.38113 46.2423 5.39136C46.0848 5.40159 45.9692 5.40674 45.8957 5.40674L46.2029 4.93759C46.4393 4.57866 46.6152 4.31209 46.7307 4.13773C47.1036 3.5686 47.3899 3.11484 47.5895 2.77643C47.2061 2.69437 46.9093 2.54055 46.6992 2.31498C46.4734 2.07402 46.3605 1.76638 46.3605 1.39206C46.3605 1.13057 46.4169 0.911378 46.5299 0.734486C46.6428 0.557594 46.8148 0.410159 47.0458 0.292256C47.1352 0.246111 47.2704 0.208963 47.4515 0.180737C47.6327 0.152512 47.8757 0.138437 48.1803 0.138437H50V5.40674ZM48.8184 0.56144H48.582C48.3037 0.56144 48.1041 0.587051 47.9833 0.638349C47.789 0.720412 47.6682 0.883152 47.621 1.12803C47.5947 1.26132 47.5816 1.38952 47.5816 1.51127C47.5816 2.24707 47.9282 2.61492 48.6214 2.61492H48.7396C48.7764 2.61492 48.8026 2.61492 48.8184 2.61492V0.56144Z" fill="white"/>
<path fill-rule="evenodd" clip-rule="evenodd" d="M2.79661 49.5446C2.71602 49.3294 2.59779 49.1615 2.44199 49.0407C2.2862 48.92 2.09542 48.8596 1.86974 48.8596C1.56893 48.8596 1.3459 48.9292 1.20089 49.0682C1.0558 49.2074 0.983248 49.395 0.983248 49.6312C0.983248 49.9146 1.19285 50.1693 1.61188 50.395C2.37484 50.8043 2.76974 51.0196 2.79661 51.0405C3.22103 51.366 3.43329 51.7859 3.43329 52.3002C3.43329 52.8041 3.23446 53.2188 2.8369 53.5442C2.43934 53.8697 1.9262 54.0324 1.29757 54.0324C1.06118 54.0324 0.831478 54.0048 0.608448 53.9497C0.385498 53.8946 0.182655 53.8093 0 53.6938C0.0645043 53.4734 0.112842 53.295 0.145094 53.1584C0.177347 53.022 0.206864 52.8671 0.233728 52.6939H0.386865C0.44598 52.9669 0.574909 53.1795 0.77373 53.3316C0.972471 53.4839 1.21432 53.56 1.49904 53.56C1.76768 53.56 1.99199 53.4891 2.17199 53.3474C2.35199 53.2057 2.44199 53.0036 2.44199 52.7411C2.44199 52.4053 2.23513 52.127 1.82148 51.9066C1.43454 51.7071 1.05041 51.5077 0.66893 51.3082C0.249813 50.9985 0.0402951 50.576 0.0402951 50.0407C0.0402951 49.563 0.196167 49.1745 0.50775 48.8754C0.846277 48.5499 1.311 48.3872 1.90199 48.3872C2.17071 48.3872 2.42454 48.4266 2.66366 48.5053C2.90269 48.584 3.07328 48.6706 3.17535 48.7651C3.11631 48.9174 3.07063 49.0434 3.03838 49.143C2.98465 49.3215 2.94436 49.4554 2.91749 49.5446H2.79661ZM10.5932 53.93C10.5019 53.93 10.4266 53.9274 10.3675 53.9221C10.1365 53.9012 10.0102 53.8906 9.98876 53.8906C9.89739 53.8906 9.77916 53.8973 9.63414 53.9103C9.48905 53.9235 9.4058 53.93 9.38425 53.93V49.0879C9.09953 49.0879 8.851 49.0971 8.63883 49.1155C8.42658 49.1339 8.1754 49.1615 7.88529 49.1982C7.89599 49.1247 7.9054 49.0604 7.91344 49.0053C7.92156 48.9501 7.9255 48.9016 7.9255 48.8596C7.9255 48.7861 7.92019 48.7218 7.90942 48.6667C7.89872 48.6116 7.8906 48.5657 7.88529 48.5289H12.0358C12.0251 48.6025 12.0157 48.6667 12.0076 48.7218C11.9996 48.7769 11.9955 48.8229 11.9955 48.8596C11.9955 48.9383 12.0009 49.0053 12.0116 49.0604C12.0223 49.1155 12.0305 49.1615 12.0358 49.1982C11.6436 49.1509 11.4072 49.1247 11.3266 49.1194C11.0848 49.0985 10.8403 49.0879 10.5932 49.0879V53.93ZM16.9552 48.5289C17.0465 48.5289 17.1647 48.5355 17.3098 48.5486C17.4549 48.5618 17.5382 48.5683 17.5596 48.5683C17.651 48.5683 17.7262 48.5657 17.7853 48.5604C18.0163 48.5395 18.1426 48.5289 18.1642 48.5289V51.1192C18.1642 51.3188 18.1654 51.5156 18.1681 51.7097C18.1708 51.904 18.191 52.0995 18.2286 52.2963C18.2662 52.4931 18.3105 52.6533 18.3616 52.7766C18.4126 52.9 18.508 53.0273 18.6477 53.1584C18.8949 53.3842 19.201 53.497 19.5664 53.497C19.9479 53.497 20.2461 53.4261 20.4611 53.2844C20.676 53.1427 20.856 52.896 21.001 52.5443C21.0655 52.3921 21.1058 52.1769 21.1219 51.8987C21.138 51.6205 21.1461 51.2925 21.1461 50.9145V48.5289L21.4684 48.5525L21.7908 48.5289V51.3318C21.7908 51.9093 21.7532 52.3317 21.6779 52.5994C21.5598 53.0246 21.3126 53.3631 20.9366 53.6151C20.7323 53.7621 20.4986 53.8684 20.2354 53.9339C19.9721 53.9996 19.6981 54.0324 19.4133 54.0324C18.8546 54.0324 18.3817 53.9406 17.9949 53.7568C17.5274 53.5312 17.2239 53.1821 17.0841 52.7097C17.0412 52.5679 17.0089 52.4118 16.9875 52.2412C16.966 52.0707 16.9552 51.904 16.9552 51.7412V48.5289ZM29.9823 48.5289C30.7883 48.5289 31.4088 48.7887 31.844 49.3084C32.2254 49.765 32.4162 50.3477 32.4162 51.0563C32.4162 51.9276 32.1342 52.623 31.5699 53.1427C31.0327 53.6414 30.3369 53.8906 29.4826 53.8906H27.226V48.5289H29.9823ZM28.4349 53.434H29.12C29.7325 53.434 30.1973 53.2687 30.5142 52.938C30.8903 52.5443 31.0784 51.9144 31.0784 51.0484C31.0784 50.3346 30.9118 49.8071 30.5787 49.4658C30.2671 49.1457 29.8157 48.9856 29.2247 48.9856H28.4349V53.434ZM37.5774 48.5289C37.6687 48.5289 37.787 48.5355 37.932 48.5486C38.0771 48.5618 38.1603 48.5683 38.1818 48.5683C38.2732 48.5683 38.3484 48.5657 38.4075 48.5604C38.6386 48.5395 38.7648 48.5289 38.7863 48.5289V53.93C38.6949 53.93 38.6197 53.9274 38.5606 53.9221C38.3296 53.9012 38.2034 53.8906 38.1818 53.8906C38.0905 53.8906 37.9723 53.8973 37.8272 53.9103C37.6822 53.9235 37.5989 53.93 37.5774 53.93V48.5289ZM46.8247 54.0324C45.9167 54.0324 45.1927 53.7857 44.6527 53.2923C44.1127 52.7989 43.8427 52.1087 43.8427 51.2216C43.8427 50.408 44.1194 49.7388 44.6728 49.2139C45.2531 48.6628 46.0348 48.3872 47.0181 48.3872C48.0604 48.3872 48.8449 48.7021 49.3714 49.3321C49.7905 49.8359 50 50.4553 50 51.1901C50 51.988 49.7179 52.6545 49.1538 53.1899C48.5628 53.7516 47.7864 54.0324 46.8247 54.0324ZM45.1805 51.4499C45.1805 52.0274 45.3095 52.5076 45.5674 52.8907C45.8683 53.3369 46.3008 53.56 46.8649 53.56C47.4506 53.56 47.9046 53.3054 48.2269 52.7963C48.5171 52.3344 48.6621 51.7491 48.6621 51.0405C48.6621 50.4579 48.5332 49.9671 48.2754 49.5682C47.9691 49.0958 47.5339 48.8596 46.9697 48.8596C46.3948 48.8596 45.9569 49.0696 45.6561 49.4895C45.339 49.9304 45.1805 50.5839 45.1805 51.4499Z" fill="white"/>
<path fill-rule="evenodd" clip-rule="evenodd" d="M29.0323 30.6452H38.7097V17.7419L29.0323 30.6452Z" fill="white"/>
<path fill-rule="evenodd" clip-rule="evenodd" d="M46.7742 30.6452H50V8.87097H46.7742V30.6452Z" fill="white"/>
</svg>

<svg width="50" height="55" fill="none" xmlns="http://www.w3.org/2000/svg"><path fill-rule="evenodd" clip-rule="evenodd" d="M0 45.161h12.903v-7.258H0v7.258zm46.774 0H50v-7.258h-3.226v7.258zm-26.613-.003l19.355.003v-7.254l-19.355-.004v7.255zM0 30.645L16.936 8.871H0v21.774zm3.226 0h9.677V17.742L3.226 30.645zm16.935.027l3.37.004-.002 7.227h2.186v-7.222l17.027-21.81h-22.58v21.8zM4.695 4.522l-.173.662c-.231.113-.48.196-.745.25-.265.053-.537.08-.815.08-.861 0-1.565-.233-2.111-.7C.284 4.334 0 3.703 0 2.924c0-.96.307-1.698.922-2.215C1.484.236 2.222 0 3.135 0c.273 0 .552.032.835.096.284.064.541.158.772.28l-.18.793H4.45a1.745 1.745 0 00-.579-.508 1.48 1.48 0 00-.729-.2c-.609 0-1.079.252-1.41.754-.284.43-.425.964-.425 1.6 0 .677.163 1.219.488 1.627.326.407.788.611 1.387.611.246 0 .497-.053.752-.158a2.12 2.12 0 00.658-.419l.102.046zm7.101.885c-.068 0-.182-.005-.343-.016l-.248-.015c-.063 0-.16.005-.291.015-.131.01-.231.016-.3.016V.684c-.278 0-.52.01-.728.027-.208.018-.453.045-.737.081l.028-.188a.995.995 0 00-.004-.331 3.004 3.004 0 01-.024-.135h4.057l-.047.323c0 .052.005.107.016.166.01.059.02.114.031.165a20.165 20.165 0 00-.693-.077 8.277 8.277 0 00-.717-.03v4.722zm8.007-1.395a14 14 0 00-.693-1.232l-.89-1.402a32.596 32.596 0 01-.764-1.24c.078 0 .196.008.354.024.158.015.276.023.355.023.078 0 .197-.008.354-.023.158-.016.276-.024.355-.024.068.139.21.39.425.754.042.067.25.415.622 1.046.252.42.407.687.465.8.126-.19.339-.597.638-1.223.158-.328.37-.787.638-1.377l.386.024.378-.024a96.733 96.733 0 00-1.907 3.638c-.393.795-.648 1.338-.763 1.63-.032 0-.084-.004-.158-.015a1.339 1.339 0 00-.173-.015l-.339.03c.09-.148.237-.429.441-.839.063-.128.155-.314.276-.555zm7.085.81c.231-.518.457-1.036.678-1.553.262-.605.48-1.123.654-1.554a42.3 42.3 0 00.614-1.592c.037 0 .092.005.166.015.073.01.128.016.165.016.042 0 .1-.005.173-.016a1.32 1.32 0 01.166-.015 144.442 144.442 0 001.867 4.7h.378a6.1 6.1 0 00-.028.222c-.008.077-.014.139-.02.185 0 .051.006.123.016.215s.021.16.032.2h-.118c-.095-.113-.258-.186-.489-.219a5.697 5.697 0 00-.803-.05h-2.324c-.363 0-.653.014-.87.042-.219.029-.378.104-.477.227h-.118c.015-.061.026-.123.031-.184.005-.062.008-.139.008-.231 0-.082-.005-.162-.016-.239l-.023-.169h.338zm3.151 0a45.192 45.192 0 00-.579-1.592c-.212-.554-.421-1.102-.626-1.646-.236.57-.457 1.108-.662 1.615a41.18 41.18 0 00-.614 1.623 32.327 32.327 0 001.19.031 29.74 29.74 0 001.291-.03zM36.385.123c.063 0 .16.01.292.03.13.021.23.032.299.032.063 0 .16-.01.291-.031.132-.02.232-.03.3-.03V3.73c.441-.456.96-1.048 1.56-1.776A43.368 43.368 0 0040.56.124h.599v5.283c-.063 0-.16-.005-.291-.016a4.218 4.218 0 00-.308-.015c-.057 0-.152.005-.283.015a4.18 4.18 0 01-.3.016V1.769a59.01 59.01 0 00-1.548 1.807 54.041 54.041 0 00-1.453 1.83h-.591V.124zM50 5.407a4.16 4.16 0 01-.291-.016 4.18 4.18 0 00-.3-.015c-.063 0-.16.005-.291.015-.132.01-.231.016-.3.016V2.953h-.055c-.094.149-.186.298-.276.446-.089.15-.165.282-.228.4l-.945 1.608a5.99 5.99 0 01-.355-.016 6 6 0 00-.354-.015c-.084 0-.205.005-.363.015-.157.01-.273.016-.346.016l.307-.47.528-.8c.373-.568.659-1.022.858-1.36-.383-.083-.68-.236-.89-.462-.226-.241-.338-.549-.338-.923 0-.261.056-.48.169-.658.113-.176.285-.324.516-.442.09-.046.224-.083.406-.111.18-.028.424-.043.728-.043H50v5.269zM48.818.56h-.236c-.278 0-.478.026-.599.077-.194.082-.315.245-.362.49-.026.133-.04.262-.04.383 0 .736.347 1.104 1.04 1.104h.197V.56zM2.797 49.545a1.112 1.112 0 00-.355-.504.906.906 0 00-.572-.181c-.301 0-.524.07-.67.208-.144.14-.217.327-.217.563 0 .284.21.538.629.764.763.41 1.158.625 1.185.645.424.326.636.746.636 1.26 0 .504-.199.919-.596 1.244-.398.326-.91.488-1.54.488-.236 0-.466-.027-.689-.082A2.05 2.05 0 010 53.694c.065-.22.113-.399.145-.536.032-.136.062-.29.089-.464h.153c.059.273.188.485.387.638.198.152.44.228.725.228.269 0 .493-.07.673-.213.18-.141.27-.343.27-.606 0-.336-.207-.614-.62-.834l-1.153-.599c-.42-.31-.629-.732-.629-1.267 0-.478.156-.866.468-1.166.338-.325.803-.488 1.394-.488.269 0 .523.04.762.118.239.079.41.166.511.26a7.362 7.362 0 00-.137.378l-.12.402h-.121zm7.796 4.385a2.77 2.77 0 01-.226-.008c-.23-.02-.357-.031-.378-.031-.092 0-.21.006-.355.02-.145.012-.228.019-.25.019v-4.842c-.284 0-.533.01-.745.027-.212.019-.464.046-.754.083l.028-.193a1.014 1.014 0 00-.004-.338 3 3 0 01-.024-.138h4.15l-.027.193a.993.993 0 00.004.338l.024.138a20.622 20.622 0 00-.71-.079 8.513 8.513 0 00-.733-.031v4.842zm6.362-5.401c.092 0 .21.006.355.02.145.013.228.02.25.02.091 0 .166-.003.225-.009.231-.02.358-.031.38-.031v2.59c0 .2 0 .397.003.59.003.195.023.39.06.587.038.197.082.357.134.48.05.124.146.251.286.382.247.226.553.339.918.339.382 0 .68-.07.895-.213.215-.141.395-.388.54-.74.064-.152.105-.367.12-.645a16.5 16.5 0 00.025-.985V48.53l.322.023.323-.023v2.803c0 .577-.038 1-.113 1.267a1.756 1.756 0 01-.741 1.016 2.024 2.024 0 01-.702.319 3.383 3.383 0 01-.822.098c-.558 0-1.031-.091-1.418-.275-.468-.226-.771-.575-.91-1.047a2.84 2.84 0 01-.098-.469 3.996 3.996 0 01-.032-.5V48.53zm13.027 0c.806 0 1.427.26 1.862.78.381.456.572 1.039.572 1.747 0 .872-.282 1.567-.846 2.087-.537.498-1.233.748-2.087.748h-2.257v-5.362h2.756zm-1.547 4.905h.685c.613 0 1.077-.165 1.394-.496.376-.394.564-1.024.564-1.89 0-.713-.166-1.24-.5-1.582-.31-.32-.762-.48-1.353-.48h-.79v4.448zm9.142-4.905c.092 0 .21.006.355.02.145.013.228.02.25.02.091 0 .166-.003.225-.009.232-.02.358-.031.38-.031v5.401c-.092 0-.167-.003-.226-.008-.231-.02-.358-.031-.38-.031-.09 0-.209.006-.354.02a5.23 5.23 0 01-.25.019v-5.401zm9.248 5.503c-.908 0-1.632-.246-2.172-.74-.54-.493-.81-1.183-.81-2.07 0-.814.276-1.483.83-2.008.58-.551 1.362-.827 2.345-.827 1.042 0 1.827.315 2.353.945.42.504.629 1.123.629 1.858 0 .798-.282 1.465-.846 2-.591.562-1.368.842-2.33.842zM45.18 51.45c0 .577.13 1.058.387 1.44.301.447.734.67 1.298.67.586 0 1.04-.255 1.362-.764.29-.462.435-1.047.435-1.755 0-.583-.129-1.074-.387-1.473-.306-.472-.741-.708-1.305-.708-.575 0-1.013.21-1.314.63-.317.44-.475 1.094-.475 1.96z" fill="#fff"/><path fill-rule="evenodd" clip-rule="evenodd" d="M29.032 30.645h9.678V17.742l-9.678 12.903zm17.742 0H50V8.871h-3.226v21.774z" fill="#fff"/></svg>
